Catalina-light/actions/16/align-horizontal-center.svg

<svg width="16" height="16" viewBox="0 0 16 16" xmlns="http://www.w3.org/2000/svg">
<defs>
<style id="current-color-scheme" type="text/css">.ColorScheme-Text { color:#5c616c; } .ColorScheme-Highlight { color:#5294e2; }</style>
</defs>
<path class="ColorScheme-Text" d="m7 1v1h-4v4h4v4h-4v4h4v1h2v-1h4v-4h-4v-4h4v-4h-4v-1h-2z" fill="#363636"/>
</svg>

<svg xmlns="http://www.w3.org/2000/svg" width="16" height="16" viewBox="0 0 16 16">
 <defs>
  <style id="current-color-scheme" type="text/css">
   .ColorScheme-Text { color:#5c616c; } .ColorScheme-Highlight { color:#5294e2; }
  </style>
 </defs>
 <path style="fill:currentColor" class="ColorScheme-Text" d="M 7 1 L 7 2 L 3 2 L 3 6 L 7 6 L 7 10 L 3 10 L 3 14 L 7 14 L 7 15 L 9 15 L 9 14 L 13 14 L 13 10 L 9 10 L 9 6 L 13 6 L 13 2 L 9 2 L 9 1 L 7 1 z"/>
</svg>
